X:396
T:Dimisjonspols
R:Rörospols
C:Sturla Eide
Z:Transcribed to abcby Jon Magnusson 080828
O:Röros, [[!Norge]]
N:[[!Norge]]
M:3/4
L:1/8
K:G
f|:g2 gf d>f|(3e^ce g<f d>B|c2cB G>B|(3AFA cB G>f|
g2 gf d>f|(3e^ce a<f d>B|c2cB G>B|[1 A<F G3f:|[2 A<F G3D|]
|:G2 BG B>B|c2 cB G>B|c2 cB G>B|A>G F<E D2|
G2 BG B>B|c2 cB G>B|c2 cB G>B|(3AFA G4:|
(:musicend:)
Här följer en variant som Rørosgruppen Småviltlaget spelar den, dels på deras cd "Lader om" men också på Meisterspelet vid Landssfestivalen i Gammeldansmusikk 1999.
(:music:)
